X:1
T:Title
%%score 1 2
L:1/8
Q:1/4=90
M:3/4
K:Eb
V:1 treble nm="Grand Piano, Staff 1"
V:2 bass nm="Choir Pad, Gairney Bridge, 88.88.88"
V:1
 [EG][DF] E [EA]3 | [EA][DG] [DF] [EB]3 | [EB][Ac] [Ad] [Ge]2 [EB]- | [EB][DA] [EG] .[DF]3 | %4
w: By~Ernest~R.~Kroeger,~1901 * * *||||
 [EG][DF] E [EA]3 | [EA][DG] [DF] [EB]3 | [EB][EB] [=Ec][Fd] [Fd][Ge]- | [Ge] [E=A]2 .[DB]3 | %8
w: ||||
 [FB][Fc] [Fd] [Ee]3 | [EG][FA] [GB] [Ec]3 | [EF][EF] [EF][EG] [EG][DA]- | [DA] [B,D]2 [B,E]3- | %12
w: ||||
 [B,E]4 z2 |] %13
w: |
V:2
 [E,B,][A,B,] [G,B,] [F,C]3 | [F,C]B, [A,B,] [G,B,]3 | [G,B,][F,B,] [F,B,] [E,B,]2 [G,B,]- | %3
 [G,B,][F,B,] [E,B,] .[B,,B,]3 | [E,B,][A,B,] [G,B,] [F,C]3 | [F,C]B, [A,B,] [G,B,]3 | %6
 [G,B,][_G,B,] [G,B,][F,B,] [F,B,][F,B,]- | [F,B,] [F,C]2 .B,3 | [B,D][=A,C] [_A,=B,] [G,_B,]3 | %9
 [E,E][E,D] [E,_D] [A,C]3 | [A,=B,][A,B,] [A,B,]_B, [B,,B,][B,,F,]- | [B,,F,] [B,,A,]2 [E,G,]3- | %12
 [E,G,]4 z2 |] %13

